Numix-GalliumOS/64/mimetypes/application-x-ace.svg

<svg xmlns="http://www.w3.org/2000/svg" xmlns:xlink="http://www.w3.org/1999/xlink" width="64px" height="64px" viewBox="0 0 64 64" version="1.1">
<g id="surface1">
<path style=" stroke:none;fill-rule:nonzero;fill:rgb(75.686275%,58.431373%,32.54902%);fill-opacity:1;" d="M 10.671875 0 C 9.296875 0 8 1.355469 8 2.789062 L 8 61.210938 C 8 62.566406 9.375 64 10.671875 64 L 53.328125 64 C 54.625 64 56 62.566406 56 61.210938 L 56 18 L 38 0 Z M 10.671875 0 "/>
<path style=" stroke:none;fill-rule:nonzero;fill:rgb(0%,0%,0%);fill-opacity:0.196078;" d="M 8 48 L 8 61.335938 C 8 62.632812 9.375 64 10.664062 64 L 53.335938 64 C 54.625 64 56 62.632812 56 61.335938 L 56 48 Z M 8 48 "/>
<path style=" stroke:none;fill-rule:nonzero;fill:rgb(0%,0%,0%);fill-opacity:0.196078;" d="M 42 18 L 56 32 L 56 18 Z M 42 18 "/>
<path style=" stroke:none;fill-rule:nonzero;fill:rgb(100%,100%,100%);fill-opacity:0.392157;" d="M 38 0 L 55.984375 18 L 40.757812 18 C 39.410156 18 38 16.574219 38 15.226562 Z M 38 0 "/>
<path style=" stroke:none;fill-rule:evenodd;fill:rgb(97.647059%,97.647059%,97.647059%);fill-opacity:1;" d="M 18 0 L 24 0 L 24 6 L 18 6 Z M 18 0 "/>
<path style=" stroke:none;fill-rule:evenodd;fill:rgb(97.647059%,97.647059%,97.647059%);fill-opacity:1;" d="M 24 6 L 30 6 L 30 12 L 24 12 Z M 24 6 "/>
<path style=" stroke:none;fill-rule:evenodd;fill:rgb(97.647059%,97.647059%,97.647059%);fill-opacity:1;" d="M 18 12 L 24 12 L 24 18 L 18 18 Z M 18 12 "/>
<path style=" stroke:none;fill-rule:evenodd;fill:rgb(97.647059%,97.647059%,97.647059%);fill-opacity:1;" d="M 24 18 L 30 18 L 30 24 L 24 24 Z M 24 18 "/>
<path style=" stroke:none;fill-rule:evenodd;fill:rgb(97.647059%,97.647059%,97.647059%);fill-opacity:1;" d="M 18 24 L 24 24 L 24 30 L 18 30 Z M 18 24 "/>
<path style=" stroke:none;fill-rule:evenodd;fill:rgb(97.647059%,97.647059%,97.647059%);fill-opacity:1;" d="M 18 32 L 30 32 L 30 44 L 18 44 Z M 18 32 "/>
<path style=" stroke:none;fill-rule:nonzero;fill:rgb(100%,100%,100%);fill-opacity:1;" d="M 24.863281 61.984375 L 24.289062 59.46875 L 21.054688 59.46875 L 20.507812 61.984375 L 18 61.984375 C 18.574219 59.84375 19.15625 57.886719 19.75 56.128906 C 20.332031 54.355469 20.898438 52.675781 21.449219 51.09375 L 24.078125 51.09375 C 24.65625 52.691406 25.21875 54.382812 25.777344 56.179688 C 26.351562 57.964844 26.910156 59.902344 27.445312 61.984375 L 24.863281 61.984375 M 22.707031 53.207031 C 22.574219 53.617188 22.449219 54.007812 22.332031 54.382812 C 22.230469 54.75 22.121094 55.113281 22.023438 55.472656 C 21.929688 55.832031 21.839844 56.1875 21.746094 56.546875 C 21.664062 56.914062 21.589844 57.289062 21.507812 57.679688 L 23.878906 57.679688 C 23.804688 57.289062 23.722656 56.914062 23.648438 56.546875 C 23.5625 56.1875 23.472656 55.832031 23.371094 55.472656 C 23.28125 55.113281 23.171875 54.75 23.054688 54.382812 C 22.957031 54.007812 22.839844 53.617188 22.707031 53.207031 "/>
<path style=" stroke:none;fill-rule:nonzero;fill:rgb(100%,100%,100%);fill-opacity:1;" d="M 33.425781 62.21875 C 31.707031 62.21875 30.402344 61.726562 29.5 60.734375 C 28.601562 59.753906 28.152344 58.355469 28.152344 56.53125 C 28.152344 55.632812 28.285156 54.824219 28.558594 54.125 C 28.835938 53.414062 29.21875 52.824219 29.703125 52.339844 C 30.191406 51.851562 30.777344 51.484375 31.441406 51.234375 C 32.125 50.976562 32.859375 50.851562 33.65625 50.851562 C 34.089844 50.851562 34.472656 50.882812 34.816406 50.949219 C 35.164062 51.007812 35.472656 51.082031 35.730469 51.167969 C 35.996094 51.25 36.207031 51.332031 36.378906 51.425781 C 36.5625 51.523438 36.695312 51.589844 36.789062 51.640625 L 36.164062 53.367188 C 35.863281 53.191406 35.496094 53.039062 35.066406 52.925781 C 34.648438 52.800781 34.164062 52.734375 33.617188 52.734375 C 33.242188 52.734375 32.867188 52.800781 32.5 52.925781 C 32.148438 53.039062 31.824219 53.25 31.542969 53.539062 C 31.265625 53.824219 31.035156 54.207031 30.851562 54.679688 C 30.683594 55.164062 30.601562 55.765625 30.601562 56.480469 C 30.601562 57.722656 30.835938 58.679688 31.308594 59.34375 C 31.792969 60.003906 32.574219 60.335938 33.65625 60.335938 C 34.28125 60.335938 34.796875 60.269531 35.207031 60.144531 C 35.621094 60.011719 35.957031 59.886719 36.207031 59.753906 L 36.8125 61.460938 C 36.472656 61.652344 36.007812 61.828125 35.421875 61.984375 C 34.847656 62.144531 34.183594 62.21875 33.425781 62.21875 "/>
<path style=" stroke:none;fill-rule:nonzero;fill:rgb(100%,100%,100%);fill-opacity:1;" d="M 38.65625 61.984375 L 38.65625 51.09375 L 46 51.09375 L 46 52.890625 L 41.0625 52.890625 L 41.0625 55.339844 L 45.351562 55.339844 L 45.351562 57.128906 L 41.0625 57.128906 L 41.0625 60.195312 L 46.433594 60.195312 L 46.433594 61.984375 L 38.65625 61.984375 "/>
</g>
</svg>

<svg xmlns="http://www.w3.org/2000/svg" viewBox="0 0 64 64">
 <g>
  <path d="m 10.672 0 c -1.375 0 -2.672 1.355 -2.672 2.789 l 0 58.42 c 0 1.355 1.375 2.789 2.672 2.789 l 42.656 0 c 1.297 0 2.672 -1.434 2.672 -2.789 l 0 -43.21 l -18 -18 m -27.328 0" style="fill:#c19553;fill-opacity:1;stroke:none;fill-rule:nonzero"/>
  <path d="m 8 48 l 0 13.336 c 0 1.297 1.375 2.664 2.664 2.664 l 42.672 0 c 1.289 0 2.664 -1.367 2.664 -2.664 l 0 -13.336 m -48 0" style="fill:#000;fill-opacity:0.196;stroke:none;fill-rule:nonzero"/>
  <path d="m 42 18 l 14 14 l 0 -14 m -14 0" style="fill:#000;fill-opacity:0.196;stroke:none;fill-rule:nonzero"/>
  <path d="m 38 0 l 17.984 18 l -15.227 0 c -1.348 0 -2.758 -1.426 -2.758 -2.773 m 0 -15.227" style="fill:#fff;fill-opacity:0.392;stroke:none;fill-rule:nonzero"/>
  <path d="m 18 0 l 6 0 l 0 6 l -6 0 m 0 -6" style="fill:#f9f9f9;fill-opacity:1;stroke:none;fill-rule:evenodd"/>
  <path d="m 24 6 l 6 0 l 0 6 l -6 0 m 0 -6" style="fill:#f9f9f9;fill-opacity:1;stroke:none;fill-rule:evenodd"/>
  <path d="m 18 12 l 6 0 l 0 6 l -6 0 m 0 -6" style="fill:#f9f9f9;fill-opacity:1;stroke:none;fill-rule:evenodd"/>
  <path d="m 24 18 l 6 0 l 0 6 l -6 0 m 0 -6" style="fill:#f9f9f9;fill-opacity:1;stroke:none;fill-rule:evenodd"/>
  <path d="m 18 24 l 6 0 l 0 6 l -6 0 m 0 -6" style="fill:#f9f9f9;fill-opacity:1;stroke:none;fill-rule:evenodd"/>
  <path d="m 18 32 l 12 0 l 0 12 l -12 0 m 0 -12" style="fill:#f9f9f9;fill-opacity:1;stroke:none;fill-rule:evenodd"/>
  <path d="m 24.863 61.984 l -0.574 -2.516 l -3.234 0 l -0.547 2.516 l -2.508 0 c 0.574 -2.141 1.156 -4.098 1.75 -5.855 c 0.582 -1.773 1.148 -3.453 1.699 -5.04 l 2.629 0 c 0.578 1.598 1.141 3.289 1.699 5.086 c 0.574 1.785 1.133 3.723 1.668 5.805 l -2.582 0 m -2.156 -8.777 c -0.133 0.41 -0.258 0.801 -0.375 1.176 c -0.102 0.367 -0.211 0.73 -0.309 1.09 c -0.094 0.359 -0.184 0.715 -0.277 1.074 c -0.082 0.367 -0.156 0.742 -0.238 1.133 l 2.371 0 c -0.074 -0.391 -0.156 -0.766 -0.23 -1.133 c -0.086 -0.359 -0.176 -0.715 -0.277 -1.074 c -0.09 -0.359 -0.199 -0.723 -0.316 -1.09 c -0.098 -0.375 -0.215 -0.766 -0.348 -1.176" style="fill:#fff;fill-opacity:1;stroke:none;fill-rule:nonzero"/>
  <path d="m 33.426 62.22 c -1.719 0 -3.02 -0.492 -3.926 -1.484 c -0.898 -0.98 -1.348 -2.379 -1.348 -4.203 c 0 -0.898 0.133 -1.707 0.406 -2.406 c 0.277 -0.711 0.66 -1.301 1.145 -1.785 c 0.488 -0.488 1.074 -0.855 1.738 -1.105 c 0.684 -0.258 1.418 -0.383 2.215 -0.383 c 0.434 0 0.816 0.031 1.16 0.098 c 0.348 0.059 0.656 0.133 0.914 0.219 c 0.266 0.082 0.477 0.164 0.648 0.258 c 0.184 0.098 0.316 0.164 0.41 0.215 l -0.625 1.727 c -0.301 -0.176 -0.668 -0.328 -1.098 -0.441 c -0.418 -0.125 -0.902 -0.191 -1.449 -0.191 c -0.375 0 -0.75 0.066 -1.117 0.191 c -0.352 0.113 -0.676 0.324 -0.957 0.613 c -0.277 0.285 -0.508 0.668 -0.691 1.141 c -0.168 0.484 -0.25 1.086 -0.25 1.801 c 0 1.242 0.234 2.199 0.707 2.863 c 0.484 0.66 1.266 0.992 2.348 0.992 c 0.625 0 1.141 -0.066 1.551 -0.191 c 0.414 -0.133 0.75 -0.258 1 -0.391 l 0.605 1.707 c -0.34 0.191 -0.805 0.367 -1.391 0.523 c -0.574 0.16 -1.238 0.234 -1.996 0.234" style="fill:#fff;fill-opacity:1;stroke:none;fill-rule:nonzero"/>
  <path d="m 38.656 61.984 l 0 -10.891 l 7.344 0 l 0 1.797 l -4.938 0 l 0 2.449 l 4.289 0 l 0 1.789 l -4.289 0 l 0 3.066 l 5.371 0 l 0 1.789 l -7.777 0" style="fill:#fff;fill-opacity:1;stroke:none;fill-rule:nonzero"/>
 </g>
</svg>
